X:21120 
T:MAIDS OF KILMALLOCK (reel), The
B:DMI.0778
Z:Nordberg/Black
R:reel % A-B-A
%Q:1/4=180
M:C
L:1/8
K:D
dB|AD FD A2AB|ADFA BEE2|ADFA Beed|cABc dedB|
AD FD A2AB|ADFA BEE2|ADFA Beed|cABc d2||
A2|d2d2 dfed|cAA2 ecAc|d2dc dfed|cABc d2A2|
defg afed|cAA2 ecAg|afge fded|cABc dedB|]
"repeat 1 - 8"

%%%

